public/assets/img/tech-logo/react-router.svg

<svg width="100" height="100" viewBox="0 0 100 100" fill="none" xmlns="http://www.w3.org/2000/svg">
<g id="reactrouter">
<g id="reactrouter_2">
<path id="Vector" d="M30.6361 59.3396C25.6683 59.3396 21.619 55.2582 21.619 50.2546C21.619 45.251 25.6683 41.1696 30.6361 41.1696C35.604 41.1696 39.6533 45.251 39.6533 50.2546C39.6533 55.2546 35.6004 59.3396 30.6361 59.3396ZM8.98501 77.3775C4.02433 77.3668 -0.0142581 73.2674 3.7837e-05 68.2639C0.00287096 65.864 0.956959 63.5632 2.65321 61.8656C4.34947 60.168 6.64953 59.2121 9.04934 59.2074C14.0136 59.2181 18.0522 63.3175 18.0343 68.3246C18.0296 70.7235 17.0748 73.0229 15.3788 74.7195C13.6829 76.4161 11.3839 77.3718 8.98501 77.3775ZM91.0506 77.3775C88.6511 77.3823 86.3474 76.436 84.644 74.746C82.9405 73.056 81.9762 70.7599 81.962 68.3604C81.937 63.3496 85.9577 59.236 90.9148 59.211C93.3131 59.2072 95.6153 60.1533 97.3179 61.8424C99.0204 63.5316 99.9847 65.8263 99.9998 68.2245C100.028 73.2317 96.0041 77.3489 91.0506 77.3775Z" fill="black"/>
<path id="Vector_2" d="M74.1493 41.6984C71.6976 40.9336 69.0778 40.6155 66.5081 40.3368C62.5339 39.9079 60.9506 38.3568 60.2787 34.3754C59.8999 32.1524 59.3709 29.8722 58.4095 27.8529C56.5761 24.0109 52.2801 22.2882 47.9664 23.271C44.3209 24.1038 41.2938 27.7314 41.1258 31.4554C40.9328 35.7013 43.3631 39.3289 47.5375 40.5798C49.521 41.1766 51.6297 41.4733 53.699 41.627C57.4982 41.9022 58.7669 43.0351 59.7926 44.7649C60.4431 45.8586 61.0686 46.9343 61.0686 50.1866C61.0686 53.4425 60.436 54.5183 59.7926 55.6084C58.7669 57.3382 57.4982 58.4675 53.699 58.7499C51.6261 58.9 49.5175 59.2002 47.5375 59.7971C43.3631 61.0515 40.9328 64.672 41.1258 68.925C41.2938 72.6455 44.3245 76.2731 47.9664 77.1058C52.2801 78.0922 56.5761 76.366 58.4095 72.524C59.3745 70.5083 59.8999 68.2245 60.2787 66.0015C60.9542 62.0201 62.5375 60.4725 66.5081 60.0401C69.0814 59.7613 71.6976 59.4397 74.1493 58.6748C77.8698 57.5133 80.1071 54.043 80.1071 50.1866C80.1071 46.3339 77.8698 42.8671 74.1493 41.6984Z" fill="#F44250"/>
</g>
</g>
</svg>

<svg xmlns="http://www.w3.org/2000/svg" width="100" height="100" fill="none"><path fill="#000" d="M30.636 59.34c-4.968 0-9.017-4.082-9.017-9.085s4.05-9.085 9.017-9.085c4.968 0 9.017 4.081 9.017 9.085 0 5-4.053 9.085-9.017 9.085M8.985 77.377c-4.96-.01-9-4.11-8.985-9.113a9.067 9.067 0 0 1 9.05-9.057c4.964.011 9.002 4.11 8.984 9.118a9.07 9.07 0 0 1-9.049 9.052m82.066 0a9.07 9.07 0 0 1-9.089-9.017c-.025-5.01 3.996-9.124 8.953-9.149A9.07 9.07 0 0 1 100 68.225c.028 5.007-3.996 9.124-8.95 9.153"/><path fill="#F44250" d="M74.15 41.698c-2.452-.764-5.072-1.083-7.642-1.361-3.974-.43-5.557-1.98-6.23-5.962-.378-2.223-.907-4.503-1.868-6.522-1.834-3.842-6.13-5.565-10.444-4.582-3.645.833-6.672 4.46-6.84 8.184-.193 4.246 2.237 7.874 6.412 9.125 1.983.597 4.092.893 6.161 1.047 3.8.275 5.068 1.408 6.094 3.138.65 1.094 1.276 2.17 1.276 5.422 0 3.256-.633 4.331-1.276 5.421-1.026 1.73-2.295 2.86-6.094 3.142-2.073.15-4.181.45-6.161 1.047-4.175 1.255-6.605 4.875-6.412 9.128.168 3.72 3.199 7.348 6.84 8.18 4.314.987 8.61-.739 10.444-4.581.965-2.016 1.49-4.3 1.869-6.523.675-3.98 2.258-5.529 6.23-5.96 2.572-.28 5.189-.601 7.64-1.366 3.72-1.162 5.958-4.632 5.958-8.488 0-3.853-2.237-7.32-5.958-8.489"/></svg>
